svg/fluentui-system-icons/ic_fluent_document_settings_16_regular.svg

<svg width="16" height="16" viewBox="0 0 16 16" fill="none" xmlns="http://www.w3.org/2000/svg">
<path d="M5.99951 1C4.89494 1 3.99951 1.89543 3.99951 3V5.20703C4.32179 5.11588 4.6561 5.05337 4.99951 5.02242V3C4.99951 2.44772 5.44723 2 5.99951 2H8.99951V4.5C8.99951 5.32843 9.67108 6 10.4995 6H12.9995V13C12.9995 13.5523 12.5518 14 11.9995 14H9.74235C9.42899 14.3794 9.06572 14.7161 8.66259 15H11.9995C13.1041 15 13.9995 14.1046 13.9995 13V5.41421C13.9995 5.01639 13.8415 4.63486 13.5602 4.35355L10.646 1.43934C10.3647 1.15804 9.98312 1 9.5853 1H5.99951ZM12.7924 5H10.4995C10.2234 5 9.99951 4.77614 9.99951 4.5V2.20711L12.7924 5ZM1.6341 9.91995C2.72205 9.64203 3.36805 8.52312 3.06476 7.44197L2.90856 6.88518C3.16264 6.68988 3.43803 6.52258 3.73045 6.3877L4.06783 6.74567C4.85676 7.58279 6.18752 7.58349 6.97734 6.7472L7.30203 6.40341C7.59982 6.54393 7.87961 6.7182 8.13683 6.92148L8.01065 7.34378C7.68131 8.44593 8.34729 9.59805 9.46673 9.86273L9.81572 9.94525C9.83731 10.127 9.84842 10.3121 9.84842 10.4999C9.84842 10.6559 9.84075 10.81 9.82578 10.9619L9.36525 11.0796C8.2773 11.3575 7.6313 12.4764 7.93459 13.5575L8.09074 14.1142C7.83667 14.3095 7.56129 14.4769 7.26886 14.6118L6.93152 14.2538C6.14258 13.4167 4.81182 13.416 4.02201 14.2523L3.69702 14.5964C3.39929 14.4559 3.11955 14.2817 2.86236 14.0785L2.9887 13.6557C3.31804 12.5536 2.65205 11.4015 1.53262 11.1368L1.18305 11.0541C1.16149 10.8725 1.15039 10.6875 1.15039 10.4999C1.15039 10.3438 1.15806 10.1897 1.17304 10.0377L1.6341 9.91995ZM6.49941 10.4999C6.49941 9.94757 6.0517 9.49985 5.49941 9.49985C4.94713 9.49985 4.49941 9.94757 4.49941 10.4999C4.49941 11.0521 4.94713 11.4999 5.49941 11.4999C6.0517 11.4999 6.49941 11.0521 6.49941 10.4999Z" fill="#212121"/>
</svg>

<svg xmlns="http://www.w3.org/2000/svg" width="16" height="16"><path d="M6 1a2 2 0 0 0-2 2v2.207a5.48 5.48 0 0 1 1-.185V3a1 1 0 0 1 1-1h3v2.5A1.5 1.5 0 0 0 10.5 6H13v7a1 1 0 0 1-1 1H9.741c-.313.38-.676.716-1.08 1H12a2 2 0 0 0 2-2V5.414a1.5 1.5 0 0 0-.439-1.06l-2.914-2.915A1.5 1.5 0 0 0 9.586 1H6Zm6.792 4H10.5a.5.5 0 0 1-.5-.5V2.207L12.793 5ZM1.634 9.92a2 2 0 0 0 1.43-2.478l-.155-.557c.254-.195.529-.362.821-.497l.338.358a2 2 0 0 0 2.91.001l.324-.344c.298.14.578.315.835.518l-.126.423a2 2 0 0 0 1.456 2.519l.349.082a4.7 4.7 0 0 1 .01 1.017l-.46.118a2 2 0 0 0-1.431 2.477l.156.557a4.35 4.35 0 0 1-.822.498l-.337-.358a2 2 0 0 0-2.91-.002l-.325.344a4.322 4.322 0 0 1-.835-.518l.127-.422a2 2 0 0 0-1.456-2.52l-.35-.082a4.7 4.7 0 0 1-.01-1.016l.461-.118Zm4.865.58a1 1 0 1 0-2 0 1 1 0 0 0 2 0Z"/></svg>
